assets/about/ui.svg

<svg width="216" height="185" viewBox="0 0 216 185" fill="none" xmlns="http://www.w3.org/2000/svg">
<g clip-path="url(#clip0_532_1382)">
<path d="M156.542 0.94458H96.0795C87.4288 0.94458 80.416 7.95652 80.416 16.6062V168.254C80.416 176.903 87.4288 183.915 96.0795 183.915H156.542C165.192 183.915 172.205 176.903 172.205 168.254V16.6062C172.205 7.95652 165.192 0.94458 156.542 0.94458Z" fill="white" stroke="#37352F" stroke-miterlimit="10"/>
<path d="M160.793 46.1345H91.8092C90.6509 46.1345 89.7119 47.0734 89.7119 48.2316V90.3233C89.7119 91.4815 90.6509 92.4203 91.8092 92.4203H160.793C161.951 92.4203 162.89 91.4815 162.89 90.3233V48.2316C162.89 47.0734 161.951 46.1345 160.793 46.1345Z" fill="#E2F1FF" stroke="#37352F" stroke-miterlimit="10"/>
<path d="M89.7119 92.4394L162.89 48.4773" stroke="#37352F" stroke-miterlimit="10"/>
<path d="M162.89 92.4394L89.7119 48.4773" stroke="#37352F" stroke-miterlimit="10"/>
<path d="M16.6279 36.1028C24.6942 36.1028 31.2333 29.5645 31.2333 21.4992C31.2333 13.4338 24.6942 6.89551 16.6279 6.89551C8.56153 6.89551 2.02246 13.4338 2.02246 21.4992C2.02246 29.5645 8.56153 36.1028 16.6279 36.1028Z" fill="#FBE9F2" stroke="#37352F" stroke-miterlimit="10"/>
<path d="M55.041 36.1028C63.1073 36.1028 69.6464 29.5645 69.6464 21.4992C69.6464 13.4338 63.1073 6.89551 55.041 6.89551C46.9746 6.89551 40.4355 13.4338 40.4355 21.4992C40.4355 29.5645 46.9746 36.1028 55.041 36.1028Z" fill="#DEFDFF" stroke="#37352F" stroke-miterlimit="10"/>
<path d="M16.3066 113.429C24.3729 113.429 30.912 106.89 30.912 98.8251C30.912 90.7597 24.3729 84.2214 16.3066 84.2214C8.24024 84.2214 1.70117 90.7597 1.70117 98.8251C1.70117 106.89 8.24024 113.429 16.3066 113.429Z" fill="#DEFDFF" stroke="#37352F" stroke-miterlimit="10"/>
<path d="M54.7197 113.429C62.786 113.429 69.3251 106.89 69.3251 98.8251C69.3251 90.7597 62.786 84.2214 54.7197 84.2214C46.6533 84.2214 40.1143 90.7597 40.1143 98.8251C40.1143 106.89 46.6533 113.429 54.7197 113.429Z" fill="#FBE9F2" stroke="#37352F" stroke-miterlimit="10"/>
<path d="M16.6279 74.7564C24.6942 74.7564 31.2333 68.2181 31.2333 60.1527C31.2333 52.0873 24.6942 45.5491 16.6279 45.5491C8.56153 45.5491 2.02246 52.0873 2.02246 60.1527C2.02246 68.2181 8.56153 74.7564 16.6279 74.7564Z" fill="#E2F1FF" stroke="#37352F" stroke-miterlimit="10"/>
<path d="M55.041 74.7564C63.1073 74.7564 69.6464 68.2181 69.6464 60.1527C69.6464 52.0873 63.1073 45.5491 55.041 45.5491C46.9746 45.5491 40.4355 52.0873 40.4355 60.1527C40.4355 68.2181 46.9746 74.7564 55.041 74.7564Z" fill="#FFF3E8" stroke="#37352F" stroke-miterlimit="10"/>
<path d="M16.3066 152.082C24.3729 152.082 30.912 145.544 30.912 137.478C30.912 129.413 24.3729 122.875 16.3066 122.875C8.24024 122.875 1.70117 129.413 1.70117 137.478C1.70117 145.544 8.24024 152.082 16.3066 152.082Z" fill="#FFF3E8" stroke="#37352F" stroke-miterlimit="10"/>
<path d="M54.7197 152.082C62.786 152.082 69.3251 145.544 69.3251 137.478C69.3251 129.413 62.786 122.875 54.7197 122.875C46.6533 122.875 40.1143 129.413 40.1143 137.478C40.1143 145.544 46.6533 152.082 54.7197 152.082Z" fill="#E2F1FF" stroke="#37352F" stroke-miterlimit="10"/>
<path d="M22.4102 21.1024L16.9875 16.3415C16.8892 16.2601 16.7656 16.2156 16.638 16.2156C16.5103 16.2156 16.3867 16.2601 16.2884 16.3415L10.8468 21.1024C10.8139 21.1367 10.7916 21.1798 10.7827 21.2265C10.7738 21.2732 10.7786 21.3215 10.7966 21.3655C10.8146 21.4095 10.845 21.4473 10.8841 21.4744C10.9232 21.5015 10.9693 21.5166 11.0168 21.518H12.3395V26.2599C12.3444 26.4019 12.4042 26.5365 12.5065 26.6352C12.6087 26.7339 12.7453 26.789 12.8874 26.7889H14.5501C14.6553 26.7889 14.7563 26.7471 14.8307 26.6727C14.9051 26.5983 14.9469 26.4974 14.9469 26.3922V23.1994H18.329V26.3733C18.3264 26.4245 18.3343 26.4756 18.3522 26.5237C18.37 26.5717 18.3974 26.6156 18.4328 26.6528C18.4681 26.6899 18.5107 26.7194 18.5578 26.7396C18.6049 26.7597 18.6556 26.7701 18.7069 26.77H20.3885C20.5273 26.7653 20.6592 26.7081 20.7574 26.6099C20.8556 26.5117 20.9128 26.3798 20.9175 26.241V21.518H22.259C22.305 21.5133 22.3487 21.4958 22.3851 21.4674C22.4215 21.439 22.4492 21.401 22.465 21.3576C22.4808 21.3142 22.484 21.2672 22.4743 21.2221C22.4646 21.1769 22.4424 21.1355 22.4102 21.1024Z" fill="#37352F"/>
<path d="M57.6475 18.8167C57.6475 19.3331 57.4941 19.8379 57.2067 20.267C56.9194 20.6962 56.511 21.0303 56.0335 21.2271C55.5559 21.4238 55.0307 21.4744 54.5244 21.3722C54.0181 21.2701 53.5535 21.0199 53.1896 20.6534C52.8257 20.2869 52.5789 19.8206 52.4804 19.3136C52.382 18.8066 52.4363 18.2818 52.6366 17.8058C52.8368 17.3298 53.174 16.9239 53.6052 16.6397C54.0365 16.3555 54.5425 16.2058 55.0589 16.2095C55.4005 16.2095 55.7386 16.2771 56.0539 16.4084C56.3692 16.5396 56.6554 16.7319 56.896 16.9743C57.1367 17.2166 57.3269 17.5042 57.4559 17.8204C57.5849 18.1366 57.65 18.4752 57.6475 18.8167Z" fill="#37352F"/>
<path d="M59.4047 26.8081C59.3318 25.7027 58.8413 24.6664 58.0326 23.9093C57.2238 23.1522 56.1574 22.731 55.0495 22.731C53.9416 22.731 52.8752 23.1522 52.0665 23.9093C51.2577 24.6664 50.7672 25.7027 50.6943 26.8081H59.4047Z" fill="#37352F"/>
<path d="M58.9705 136.609H58.5171C58.4241 136.199 58.2576 135.808 58.0258 135.457L58.3659 135.117C58.4296 135.047 58.465 134.956 58.465 134.862C58.465 134.767 58.4296 134.676 58.3659 134.607L57.629 133.87C57.5971 133.834 57.5579 133.805 57.5139 133.785C57.4699 133.765 57.4222 133.755 57.3739 133.755C57.3257 133.755 57.278 133.765 57.234 133.785C57.19 133.805 57.1508 133.834 57.1189 133.87L56.7788 134.21C56.4256 133.981 56.0358 133.815 55.6262 133.719V133.246C55.6214 133.15 55.5794 133.058 55.5091 132.991C55.4387 132.925 55.3454 132.887 55.2483 132.887H54.2091C54.1154 132.892 54.0267 132.931 53.9604 132.998C53.894 133.064 53.8547 133.153 53.8501 133.246V133.719C53.4395 133.812 53.049 133.978 52.6976 134.21L52.3575 133.87C52.3256 133.834 52.2863 133.805 52.2423 133.785C52.1984 133.765 52.1507 133.755 52.1024 133.755C52.0542 133.755 52.0065 133.765 51.9625 133.785C51.9185 133.805 51.8792 133.834 51.8473 133.87L51.1104 134.607C51.0467 134.676 51.0114 134.767 51.0114 134.862C51.0114 134.956 51.0467 135.047 51.1104 135.117L51.4505 135.457C51.2187 135.808 51.0523 136.199 50.9593 136.609H50.4869C50.3932 136.614 50.3045 136.653 50.2382 136.719C50.1718 136.786 50.1325 136.874 50.1279 136.968V138.007C50.1278 138.104 50.165 138.198 50.2319 138.268C50.2987 138.338 50.39 138.38 50.4869 138.385H50.9593C51.0557 138.795 51.2219 139.184 51.4505 139.538L51.1104 139.878C51.0467 139.947 51.0114 140.038 51.0114 140.133C51.0114 140.227 51.0467 140.318 51.1104 140.388L51.8473 141.124C51.917 141.188 52.008 141.224 52.1024 141.224C52.1968 141.224 52.2878 141.188 52.3575 141.124L52.6976 140.784C53.053 141.009 53.4422 141.175 53.8501 141.276V141.729C53.85 141.826 53.8872 141.919 53.9541 141.99C54.0209 142.06 54.1122 142.102 54.2091 142.107H55.2483C55.3485 142.107 55.4447 142.067 55.5155 141.996C55.5864 141.925 55.6262 141.829 55.6262 141.729V141.276C56.033 141.171 56.4216 141.005 56.7788 140.784L57.1189 141.124C57.1885 141.188 57.2795 141.224 57.3739 141.224C57.4684 141.224 57.5594 141.188 57.629 141.124L58.3659 140.388C58.4296 140.318 58.465 140.227 58.465 140.133C58.465 140.038 58.4296 139.947 58.3659 139.878L58.0258 139.538C58.2545 139.184 58.4207 138.795 58.5171 138.385H58.9705C59.0708 138.385 59.1669 138.345 59.2377 138.274C59.3086 138.204 59.3484 138.107 59.3484 138.007V136.968C59.3436 136.871 59.3016 136.78 59.2313 136.713C59.1609 136.646 59.0676 136.609 58.9705 136.609ZM54.7382 139.349C54.3645 139.349 53.9992 139.238 53.6885 139.03C53.3777 138.823 53.1356 138.528 52.9926 138.182C52.8495 137.837 52.8121 137.457 52.885 137.091C52.9579 136.724 53.1379 136.388 53.4021 136.123C53.6664 135.859 54.003 135.679 54.3696 135.606C54.7361 135.534 55.116 135.571 55.4612 135.714C55.8065 135.857 56.1016 136.099 56.3092 136.41C56.5168 136.72 56.6276 137.086 56.6276 137.459C56.6276 137.96 56.4286 138.441 56.0742 138.795C55.7199 139.15 55.2393 139.349 54.7382 139.349Z" fill="#37352F"/>
<path d="M19.2918 100.62C19.8234 100.042 20.1753 99.3214 20.3043 98.5468C20.4334 97.7722 20.334 96.9769 20.0184 96.2578C19.7028 95.5387 19.1846 94.9271 18.5271 94.4977C17.8696 94.0683 17.1012 93.8396 16.3159 93.8396C15.5305 93.8396 14.7622 94.0683 14.1047 94.4977C13.4471 94.9271 12.9289 95.5387 12.6133 96.2578C12.2977 96.9769 12.1984 97.7722 12.3274 98.5468C12.4565 99.3214 12.8083 100.042 13.34 100.62L15.8908 103.605C15.9455 103.662 16.0114 103.708 16.0845 103.74C16.1576 103.771 16.2363 103.787 16.3159 103.787C16.3954 103.787 16.4742 103.771 16.5473 103.74C16.6203 103.708 16.6863 103.662 16.741 103.605L19.2918 100.62ZM16.3064 96.2744C16.6211 96.2706 16.9298 96.3605 17.1933 96.5326C17.4568 96.7047 17.6631 96.9512 17.7862 97.2408C17.9092 97.5305 17.9433 97.8501 17.8842 98.1592C17.8251 98.4682 17.6755 98.7528 17.4543 98.9766C17.2331 99.2004 16.9503 99.3535 16.642 99.4163C16.3336 99.479 16.0135 99.4487 15.7224 99.3292C15.4313 99.2097 15.1823 99.0063 15.007 98.7449C14.8318 98.4836 14.7382 98.176 14.7382 97.8613C14.7382 97.4437 14.9028 97.0429 15.1964 96.7458C15.4899 96.4487 15.8888 96.2794 16.3064 96.2744Z" fill="#37352F"/>
<path d="M58.1205 102.603V98.1636C58.1205 97.2567 57.7602 96.387 57.1189 95.7457C56.4775 95.1044 55.6077 94.7441 54.7006 94.7441C53.7936 94.7441 52.9238 95.1044 52.2824 95.7457C51.6411 96.387 51.2807 97.2567 51.2807 98.1636V102.641C51.112 102.651 50.9533 102.725 50.8374 102.848C50.7214 102.971 50.657 103.133 50.6572 103.302C50.6572 103.483 50.7289 103.656 50.8565 103.783C50.984 103.911 51.157 103.982 51.3374 103.982H58.0827C58.1815 103.994 58.2815 103.983 58.3757 103.952C58.4699 103.92 58.5561 103.868 58.6281 103.8C58.7002 103.731 58.7563 103.648 58.7927 103.555C58.829 103.463 58.8447 103.364 58.8385 103.265C58.8389 103.173 58.8201 103.082 58.7834 102.998C58.7466 102.914 58.6928 102.838 58.6252 102.776C58.5577 102.714 58.4779 102.666 58.391 102.636C58.3042 102.607 58.212 102.595 58.1205 102.603Z" fill="#37352F"/>
<path d="M54.7194 95.4244C55.189 95.4244 55.5696 95.0438 55.5696 94.5743C55.5696 94.1047 55.189 93.7241 54.7194 93.7241C54.2498 93.7241 53.8691 94.1047 53.8691 94.5743C53.8691 95.0438 54.2498 95.4244 54.7194 95.4244Z" fill="#37352F"/>
<path d="M19.8781 58.6035H13.3596C12.7543 58.6035 12.2637 59.0941 12.2637 59.6993V63.5533C12.2637 64.1584 12.7543 64.649 13.3596 64.649H19.8781C20.4834 64.649 20.974 64.1584 20.974 63.5533V59.6993C20.974 59.0941 20.4834 58.6035 19.8781 58.6035Z" fill="#37352F"/>
<path d="M16.6286 61.6074C18.0895 61.6074 19.2738 60.2795 19.2738 58.6414C19.2738 57.0033 18.0895 55.6753 16.6286 55.6753C15.1677 55.6753 13.9834 57.0033 13.9834 58.6414C13.9834 60.2795 15.1677 61.6074 16.6286 61.6074Z" stroke="#37352F" stroke-width="0.9" stroke-miterlimit="10"/>
<path d="M56.1549 57.6777C57.0418 57.6777 57.7609 56.9588 57.7609 56.0719C57.7609 55.185 57.0418 54.4661 56.1549 54.4661C55.2679 54.4661 54.5488 55.185 54.5488 56.0719C54.5488 56.9588 55.2679 57.6777 56.1549 57.6777Z" fill="#37352F"/>
<path d="M56.1549 65.8579C57.0418 65.8579 57.7609 65.1389 57.7609 64.2521C57.7609 63.3652 57.0418 62.6462 56.1549 62.6462C55.2679 62.6462 54.5488 63.3652 54.5488 64.2521C54.5488 65.1389 55.2679 65.8579 56.1549 65.8579Z" fill="#37352F"/>
<path d="M51.9234 61.9097C52.8104 61.9097 53.5294 61.1907 53.5294 60.3038C53.5294 59.417 52.8104 58.698 51.9234 58.698C51.0364 58.698 50.3174 59.417 50.3174 60.3038C50.3174 61.1907 51.0364 61.9097 51.9234 61.9097Z" fill="#37352F"/>
<path d="M51.9229 60.3038L55.7206 56.5254" stroke="#37352F" stroke-miterlimit="10"/>
<path d="M51.9229 60.3037L55.7206 64.0821" stroke="#37352F" stroke-miterlimit="10"/>
<path d="M12.2822 134.002H20.3313" stroke="#37352F" stroke-linecap="round" stroke-linejoin="round"/>
<path d="M12.2822 137.478H20.3313" stroke="#37352F" stroke-linecap="round" stroke-linejoin="round"/>
<path d="M12.2822 140.973H20.3313" stroke="#37352F" stroke-linecap="round" stroke-linejoin="round"/>
<path d="M91.6016 108.328H154.237" stroke="#37352F" stroke-linecap="round" stroke-linejoin="round"/>
<path d="M91.6016 121.118H130.864" stroke="#37352F" stroke-linecap="round" stroke-linejoin="round"/>
<path d="M91.6016 133.889H140.897" stroke="#37352F" stroke-linecap="round" stroke-linejoin="round"/>
<path d="M91.6016 146.679H140.897" stroke="#37352F" stroke-linecap="round" stroke-linejoin="round"/>
<path d="M150.987 29.6229C154.775 29.6229 157.845 26.5526 157.845 22.7651C157.845 18.9776 154.775 15.9072 150.987 15.9072C147.199 15.9072 144.128 18.9776 144.128 22.7651C144.128 26.5526 147.199 29.6229 150.987 29.6229Z" stroke="#37352F" stroke-miterlimit="10"/>
<path d="M156.599 27.3748L159.792 30.5675" stroke="#37352F" stroke-linecap="round" stroke-linejoin="round"/>
<path d="M133.207 141.238H180.008C182.93 141.238 185.732 142.398 187.798 144.464C189.863 146.529 191.024 149.331 191.024 152.252V162.473C191.024 162.673 190.944 162.865 190.803 163.007C190.661 163.149 190.469 163.228 190.268 163.228H133.207C130.285 163.228 127.484 162.068 125.418 160.002C123.352 157.937 122.191 155.135 122.191 152.214C122.191 149.293 123.352 146.491 125.418 144.426C127.484 142.36 130.285 141.2 133.207 141.2V141.238Z" fill="#FBE9F2" stroke="#37352F" stroke-miterlimit="10"/>
<path d="M202.134 127.503L144.261 127.503C144.03 127.503 143.809 127.412 143.646 127.249C143.483 127.086 143.391 126.865 143.391 126.634V112.049C143.391 108.687 144.727 105.463 147.105 103.086C149.482 100.708 152.707 99.3727 156.07 99.3727H202.134C205.497 99.3727 208.722 100.708 211.099 103.086C213.477 105.463 214.813 108.687 214.812 112.049V114.827C214.812 118.189 213.477 121.413 211.099 123.79C208.722 126.168 205.497 127.503 202.134 127.503Z" fill="#DEFDFF" stroke="#37352F" stroke-miterlimit="10"/>
<path d="M139.631 153.971C140.706 153.971 141.577 153.1 141.577 152.025C141.577 150.951 140.706 150.079 139.631 150.079C138.556 150.079 137.685 150.951 137.685 152.025C137.685 153.1 138.556 153.971 139.631 153.971Z" fill="#37352F"/>
<path d="M147.85 153.971C148.925 153.971 149.797 153.1 149.797 152.025C149.797 150.951 148.925 150.079 147.85 150.079C146.776 150.079 145.904 150.951 145.904 152.025C145.904 153.1 146.776 153.971 147.85 153.971Z" fill="#37352F"/>
<path d="M155.615 153.971C156.69 153.971 157.561 153.1 157.561 152.025C157.561 150.951 156.69 150.079 155.615 150.079C154.54 150.079 153.669 150.951 153.669 152.025C153.669 153.1 154.54 153.971 155.615 153.971Z" fill="#37352F"/>
<path d="M181.067 113.977C182.142 113.977 183.013 113.105 183.013 112.031C183.013 110.956 182.142 110.085 181.067 110.085C179.992 110.085 179.121 110.956 179.121 112.031C179.121 113.105 179.992 113.977 181.067 113.977Z" fill="#37352F"/>
<path d="M172.205 113.977C173.28 113.977 174.151 113.105 174.151 112.031C174.151 110.956 173.28 110.085 172.205 110.085C171.13 110.085 170.259 110.956 170.259 112.031C170.259 113.105 171.13 113.977 172.205 113.977Z" fill="#37352F"/>
<path d="M189.305 113.977C190.379 113.977 191.251 113.105 191.251 112.031C191.251 110.956 190.379 110.085 189.305 110.085C188.23 110.085 187.358 110.956 187.358 112.031C187.358 113.105 188.23 113.977 189.305 113.977Z" fill="#37352F"/>
<path d="M197.052 113.977C198.126 113.977 198.998 113.105 198.998 112.031C198.998 110.956 198.126 110.085 197.052 110.085C195.977 110.085 195.105 110.956 195.105 112.031C195.105 113.105 195.977 113.977 197.052 113.977Z" fill="#37352F"/>
</g>
<defs>
<clipPath id="clip0_532_1382">
<rect width="215" height="184.86" fill="white" transform="translate(0.756836)"/>
</clipPath>
</defs>
</svg>

<svg xmlns="http://www.w3.org/2000/svg" xmlns:xlink="http://www.w3.org/1999/xlink" width="216" height="185" fill="none" xmlns:v="https://vecta.io/nano"><style><![CDATA[.B{stroke-miterlimit:10}.C{stroke:#37352f}.D{fill:#e2f1ff}.E{fill:#fbe9f2}.F{fill:#37352f}.G{stroke-linecap:round}.H{stroke-linejoin:round}]]></style><g clip-path="url(#A)"><g class="B C"><path d="M156.542.945H96.08c-8.651 0-15.663 7.012-15.663 15.662v151.648c0 8.649 7.013 15.661 15.664 15.661h60.463c8.65 0 15.663-7.012 15.663-15.661V16.606c0-8.65-7.013-15.662-15.663-15.662z" fill="#fff"/><path d="M160.793 46.135H91.809a2.1 2.1 0 0 0-2.097 2.097v42.092a2.1 2.1 0 0 0 2.097 2.097h68.984a2.1 2.1 0 0 0 2.097-2.097V48.232a2.1 2.1 0 0 0-2.097-2.097z" class="D"/><path d="M89.712 92.439l73.178-43.962"/><path d="M162.89 92.439L89.712 48.477"/><path d="M16.628 36.103c8.066 0 14.605-6.538 14.605-14.604S24.694 6.896 16.628 6.896 2.022 13.434 2.022 21.499s6.539 14.604 14.605 14.604z" class="E"/><g fill="#defdff"><path d="M55.041 36.103c8.066 0 14.605-6.538 14.605-14.604S63.107 6.896 55.041 6.896 40.436 13.434 40.436 21.5s6.539 14.604 14.606 14.604zm-38.734 77.326a14.61 14.61 0 0 0 14.605-14.604c0-8.065-6.539-14.604-14.605-14.604A14.61 14.61 0 0 0 1.701 98.825a14.61 14.61 0 0 0 14.605 14.604z"/></g><path d="M54.72 113.429a14.61 14.61 0 0 0 14.605-14.604c0-8.065-6.539-14.604-14.605-14.604S40.114 90.76 40.114 98.825a14.61 14.61 0 0 0 14.605 14.604z" class="E"/><path d="M16.628 74.756c8.066 0 14.605-6.538 14.605-14.604s-6.539-14.604-14.605-14.604S2.022 52.087 2.022 60.153s6.539 14.604 14.605 14.604z" class="D"/><g fill="#fff3e8"><path d="M55.041 74.756c8.066 0 14.605-6.538 14.605-14.604s-6.539-14.604-14.605-14.604-14.605 6.538-14.605 14.604 6.539 14.604 14.606 14.604z"/><use xlink:href="#B"/></g><path d="M54.72 152.082c8.066 0 14.605-6.538 14.605-14.604s-6.539-14.603-14.605-14.603-14.605 6.538-14.605 14.603 6.539 14.604 14.605 14.604z" class="D"/></g><g class="F"><path d="M22.41 21.102l-5.423-4.761a.55.55 0 0 0-.699 0l-5.442 4.761c-.033.034-.055.077-.064.124s-.004.095.014.139a.24.24 0 0 0 .088.109c.04.027.085.042.133.044h1.323v4.742a.55.55 0 0 0 .548.529h1.663a.4.4 0 0 0 .281-.116c.075-.074.116-.175.116-.28V23.2h3.382v3.174c-.003.051.005.102.023.15a.37.37 0 0 0 .081.129.38.38 0 0 0 .274.117h1.682a.55.55 0 0 0 .529-.529v-4.723h1.342c.046-.005.09-.022.126-.051s.064-.066.08-.11.019-.09.009-.136-.032-.087-.064-.12zm35.238-2.285a2.6 2.6 0 0 1-.441 1.45c-.288.429-.696.763-1.173.96a2.61 2.61 0 0 1-1.509.145c-.506-.102-.971-.352-1.335-.719s-.611-.833-.709-1.34-.044-1.032.156-1.508a2.6 2.6 0 0 1 .969-1.166 2.61 2.61 0 0 1 1.454-.43 2.59 2.59 0 0 1 .995.199 2.57 2.57 0 0 1 .842.566c.24.243.431.53.56.846s.194.655.192.996zm1.757 7.991c-.073-1.105-.563-2.142-1.372-2.899s-1.875-1.178-2.983-1.178-2.174.421-2.983 1.178a4.36 4.36 0 0 0-1.372 2.899h8.71zm-.434 109.801h-.453a3.51 3.51 0 0 0-.491-1.152l.34-.34a.38.38 0 0 0 .099-.255c0-.095-.035-.186-.099-.255l-.737-.737c-.032-.036-.071-.065-.115-.085a.34.34 0 0 0-.28 0c-.044.02-.083.049-.115.085l-.34.34a3.65 3.65 0 0 0-1.153-.491v-.473a.38.38 0 0 0-.117-.255c-.07-.066-.164-.104-.261-.104H54.21a.38.38 0 0 0-.249.111c-.067.067-.106.155-.11.248v.473a3.49 3.49 0 0 0-1.152.491l-.34-.34c-.032-.036-.071-.065-.115-.085a.34.34 0 0 0-.28 0c-.044.02-.083.049-.115.085l-.737.737c-.064.069-.099.16-.099.255a.38.38 0 0 0 .099.255l.34.34a3.49 3.49 0 0 0-.491 1.152h-.472a.38.38 0 0 0-.359.359v1.039c0 .097.037.191.104.261a.38.38 0 0 0 .255.117h.472a3.68 3.68 0 0 0 .491 1.153l-.34.34c-.064.069-.099.16-.099.255a.38.38 0 0 0 .099.255l.737.736a.38.38 0 0 0 .255.1.38.38 0 0 0 .255-.1l.34-.34c.355.225.745.391 1.152.492v.453a.38.38 0 0 0 .359.378h1.039c.1 0 .196-.04.267-.111s.111-.167.111-.267v-.453c.407-.105.795-.271 1.153-.492l.34.34a.38.38 0 0 0 .255.1.38.38 0 0 0 .255-.1l.737-.736a.38.38 0 0 0 .099-.255c0-.095-.035-.186-.099-.255l-.34-.34a3.67 3.67 0 0 0 .491-1.153h.453c.1 0 .196-.04.267-.111s.111-.167.111-.267v-1.039a.38.38 0 0 0-.117-.255c-.07-.067-.164-.104-.261-.104zm-4.232 2.74a1.89 1.89 0 0 1-1.05-.319 1.88 1.88 0 0 1-.696-.848c-.143-.345-.181-.725-.108-1.091a1.9 1.9 0 0 1 .517-.968 1.89 1.89 0 0 1 .968-.517 1.9 1.9 0 0 1 1.092.108 1.89 1.89 0 0 1 .848.696c.208.31.318.676.318 1.049a1.89 1.89 0 0 1-.553 1.336c-.354.355-.835.554-1.336.554zM19.292 100.62c.532-.578.884-1.299 1.013-2.073a4.04 4.04 0 0 0-.286-2.289c-.316-.719-.834-1.331-1.491-1.76s-1.426-.658-2.211-.658-1.554.229-2.211.658a4.04 4.04 0 0 0-1.777 4.049 4.04 4.04 0 0 0 1.013 2.073l2.551 2.985a.61.61 0 0 0 .194.135c.073.032.152.047.231.047s.158-.016.231-.047.139-.078.194-.135l2.551-2.985zm-2.985-4.346c.315-.004.623.086.887.258a1.59 1.59 0 0 1 .593.708c.123.29.157.609.098.918s-.209.594-.43.817a1.59 1.59 0 0 1-2.447-.231 1.59 1.59 0 0 1-.269-.884c0-.418.165-.818.458-1.115s.692-.466 1.11-.471zm41.814 6.329v-4.439a3.42 3.42 0 1 0-6.84 0v4.477a.66.66 0 0 0-.623.661.68.68 0 0 0 .68.68h6.745c.099.012.199.001.293-.03a.69.69 0 0 0 .252-.152c.072-.069.128-.152.165-.245a.67.67 0 0 0 .046-.29.66.66 0 0 0-.213-.489.67.67 0 0 0-.505-.173z"/><path d="M54.719 95.424a.85.85 0 1 0 0-1.7.85.85 0 1 0 0 1.7zm-34.841-36.82H13.36c-.605 0-1.096.491-1.096 1.096v3.854c0 .605.491 1.096 1.096 1.096h6.518c.605 0 1.096-.491 1.096-1.096V59.7c0-.605-.491-1.096-1.096-1.096z"/></g><path d="M16.629 61.607c1.461 0 2.645-1.328 2.645-2.966s-1.184-2.966-2.645-2.966-2.645 1.328-2.645 2.966 1.184 2.966 2.645 2.966z" stroke-width=".9" class="B C"/><g class="F"><use xlink:href="#C"/><path d="M56.155 65.858c.887 0 1.606-.719 1.606-1.606s-.719-1.606-1.606-1.606-1.606.719-1.606 1.606.719 1.606 1.606 1.606zm-4.232-3.948c.887 0 1.606-.719 1.606-1.606s-.719-1.606-1.606-1.606-1.606.719-1.606 1.606.719 1.606 1.606 1.606z"/></g><g class="C"><g class="B"><path d="M51.923 60.304l3.798-3.778m-3.798 3.778l3.798 3.778"/></g><g class="G H"><path d="M12.282 134.002h8.049m-8.049 3.476h8.049"/><path d="M12.282 140.973h8.049m71.271-32.645h62.635m-62.635 12.79h39.262m-39.262 12.771h49.295m-49.295 12.79h49.295"/></g><path d="M150.987 29.623a6.86 6.86 0 0 0 6.858-6.858 6.86 6.86 0 0 0-6.858-6.858 6.86 6.86 0 0 0-6.859 6.858 6.86 6.86 0 0 0 6.859 6.858z" class="B"/><path d="M156.599 27.375l3.193 3.193" class="G H"/><g class="B"><path d="M133.207 141.238h46.801c2.922 0 5.724 1.16 7.79 3.226s3.226 4.867 3.226 7.788v10.221a.76.76 0 0 1-.221.534c-.142.142-.334.221-.535.221h-57.061c-2.922 0-5.723-1.16-7.789-3.226a11.01 11.01 0 0 1 0-15.576c2.066-2.066 4.867-3.226 7.789-3.226v.038z" class="E"/><path d="M202.134 127.503h-57.873a.87.87 0 0 1-.87-.869v-14.585c0-3.362 1.336-6.586 3.714-8.963s5.602-3.713 8.965-3.713h46.064c3.363 0 6.588 1.335 8.965 3.713s3.714 5.601 3.713 8.963v2.778a12.67 12.67 0 0 1-3.713 8.963c-2.377 2.378-5.602 3.713-8.965 3.713z" fill="#defdff"/></g></g><g class="F"><use xlink:href="#D"/><path d="M147.85 153.971c1.075 0 1.947-.871 1.947-1.946a1.95 1.95 0 0 0-1.947-1.946 1.95 1.95 0 0 0-1.946 1.946c0 1.075.872 1.946 1.946 1.946zm7.765 0c1.075 0 1.946-.871 1.946-1.946s-.871-1.946-1.946-1.946-1.946.872-1.946 1.946.871 1.946 1.946 1.946z"/><use xlink:href="#E"/><path d="M172.205 113.977c1.075 0 1.946-.872 1.946-1.946s-.871-1.946-1.946-1.946-1.946.871-1.946 1.946.871 1.946 1.946 1.946z"/><use xlink:href="#F"/><path d="M197.052 113.977a1.95 1.95 0 0 0 1.946-1.946c0-1.075-.872-1.946-1.946-1.946s-1.947.871-1.947 1.946a1.95 1.95 0 0 0 1.947 1.946z"/></g></g><defs><clipPath id="A"><path fill="#fff" transform="translate(.757)" d="M0 0h215v184.86H0z"/></clipPath><path id="B" d="M16.307 152.082c8.066 0 14.605-6.538 14.605-14.604s-6.539-14.603-14.605-14.603-14.605 6.538-14.605 14.603 6.539 14.604 14.605 14.604z"/><path id="C" d="M56.155 57.678c.887 0 1.606-.719 1.606-1.606s-.719-1.606-1.606-1.606-1.606.719-1.606 1.606.719 1.606 1.606 1.606z"/><path id="D" d="M139.631 153.971c1.075 0 1.946-.871 1.946-1.946s-.871-1.946-1.946-1.946-1.946.872-1.946 1.946.871 1.946 1.946 1.946z"/><path id="E" d="M181.067 113.977c1.075 0 1.946-.872 1.946-1.946s-.871-1.946-1.946-1.946-1.946.871-1.946 1.946.871 1.946 1.946 1.946z"/><path id="F" d="M189.305 113.977a1.95 1.95 0 0 0 1.946-1.946c0-1.075-.872-1.946-1.946-1.946s-1.947.871-1.947 1.946a1.95 1.95 0 0 0 1.947 1.946z"/></defs></svg>
